data/arweave/ecosystem/gitcoin/logo.svg

<svg width="300" height="300" viewPort="0 0 300 300" xmlns="http://www.w3.org/2000/svg" fill="none">
 <g>
  <path id="svg_2" fill="#15EBB7" d="m197.933,126.436c6.956,9.75 10.732,21.59 10.633,33.529c0,11.74 -3.776,23.48 -10.633,33.031l14.508,11.043c9.241,-12.735 14.309,-28.255 14.309,-43.975c0.1,-16.615 -5.366,-32.931 -15.402,-46.064l-8.32,7.5l-5.095,4.936z" clip-rule="evenodd" fill-rule="evenodd"/>
  <path id="svg_3" fill="#0E0333" d="m225.359,213.821l-48.79,-37.11c3.478,-4.577 5.465,-10.148 5.763,-15.919c0.199,-5.77 -1.291,-11.441 -4.372,-16.316l23.352,-21.092l24.445,-22.883c1.59,-1.4927 1.689,-4.0794 0.099,-5.6713l-3.378,-3.3827c-17.39,-17.6099 -40.841,-27.8575 -65.485,-28.6534l0.1,-13.4313c0.099,-0.8954 0,-1.7908 -0.199,-2.6862c-0.298,-0.8954 -0.696,-1.6914 -1.292,-2.3878c-0.596,-0.6964 -1.292,-1.1939 -2.186,-1.5919c-0.795,-0.3979 -1.689,-0.5969 -2.584,-0.5969c-0.894,0 -1.788,0.199 -2.583,0.5969c-0.795,0.398 -1.59,0.8955 -2.186,1.5919c-0.597,0.6964 -1.094,1.4924 -1.292,2.2883c-0.298,0.8954 -0.398,1.7908 -0.199,2.6862l-0.099,13.8293c-5.863,0.5969 -11.726,1.6913 -17.39,3.3827l0.099,-17.212c0.1,-0.8954 0,-1.7908 -0.198,-2.6862c-0.298,-0.8954 -0.696,-1.6914 -1.292,-2.3878c-0.596,-0.6964 -1.292,-1.1939 -2.186,-1.5919c-0.795,-0.3979 -1.69,-0.5969 -2.584,-0.5969c-0.894,0 -1.789,0.199 -2.583,0.5969c-0.795,0.398 -1.59,0.8955 -2.187,1.5919c-0.596,0.6964 -1.093,1.4924 -1.291,2.2883c-0.299,0.8954 -0.398,1.7908 -0.199,2.6863l-0.298,21.9875c-20.0728,8.9541 -36.5681,24.5742 -46.6044,44.1741c-10.0363,19.6 -13.2162,42.085 -8.8439,63.674c4.3722,21.59 15.9985,41.09 32.8912,55.218c16.8931,14.127 38.1581,22.087 60.1181,22.485l71.049,0.298c2.187,0 3.975,-1.791 3.975,-3.98l0,-35.916c0,-1.293 -0.596,-2.487 -1.59,-3.283zm-72.042,25.569c-17.489,-0.099 -34.482,-5.969 -48.294,-16.615c-13.8123,-10.745 -23.7492,-25.768 -28.2208,-42.682c-4.4716,-16.913 -3.1798,-34.921 3.4779,-51.038c6.7571,-16.118 18.582,-29.6487 33.7859,-38.4039l-0.1,26.1659c-0.099,0.896 0,1.791 0.199,2.686c0.298,0.896 0.696,1.692 1.292,2.388c0.596,0.697 1.292,1.194 2.186,1.592c0.795,0.398 1.689,0.597 2.584,0.597c0.894,0 1.788,-0.199 2.583,-0.597c0.795,-0.398 1.59,-0.895 2.186,-1.592c0.596,-0.696 1.093,-1.492 1.292,-2.288c0.298,-0.895 0.398,-1.791 0.199,-2.686l0.099,-32.1359c8.745,-3.1837 17.986,-4.6761 27.327,-4.6761c17.191,0 33.885,5.671 47.498,16.0181c0.994,0.7959 1.093,2.1888 0.199,3.0842l-37.164,34.1257c-3.379,-1.393 -7.055,-2.189 -10.732,-2.189c-4.074,0 -8.148,0.796 -11.924,2.487c-3.776,1.692 -7.056,4.179 -9.739,7.263c-2.682,3.084 -4.67,6.765 -5.862,10.646c-1.193,3.979 -1.491,8.058 -0.895,12.137c0.597,4.08 1.988,7.96 4.174,11.442c2.186,3.482 5.167,6.367 8.546,8.656c3.478,2.188 7.353,3.681 11.427,4.278c4.074,0.597 8.248,0.298 12.123,-0.896l47.499,36.116c0.497,0.398 0.795,0.994 0.795,1.591l-0.1,12.735c0,1.095 -0.894,1.99 -1.987,1.99l-54.454,-0.199zm11.626,-79.593c0,2.189 -0.696,4.378 -1.888,6.268c-1.292,1.891 -2.981,3.283 -5.068,4.179c-2.087,0.895 -4.372,1.094 -6.459,0.597c-2.087,-0.498 -4.174,-1.493 -5.764,-3.084c-1.589,-1.592 -2.683,-3.582 -3.08,-5.771c-0.397,-2.189 -0.199,-4.477 0.696,-6.467c0.894,-2.089 2.285,-3.78 4.173,-5.074c1.888,-1.194 4.074,-1.89 6.26,-1.89c2.981,0 5.863,1.194 7.95,3.383c1.987,1.989 3.18,4.775 3.18,7.859z" clip-rule="evenodd" fill-rule="evenodd"/>
 </g>
</svg>

<svg width="850" height="300" viewBox="0 0 850 300" fill="none" xmlns="http://www.w3.org/2000/svg">
<path d="M318.7 157.299H357.8C357.8 161.299 357.6 164.999 357.3 168.299C357 171.599 356.3 174.599 355.3 177.399C353.9 181.399 352 184.899 349.6 187.999C347.2 190.999 344.3 193.599 341.1 195.599C337.9 197.599 334.3 199.199 330.4 200.199C326.5 201.299 322.4 201.799 318.1 201.799C312.2 201.799 306.8 200.799 301.9 198.899C297.1 196.999 292.9 194.199 289.4 190.799C285.9 187.199 283.2 182.999 281.3 178.099C279.4 173.099 278.4 167.699 278.4 161.699C278.4 155.799 279.3 150.399 281.2 145.499C283.1 140.499 285.9 136.299 289.3 132.799C292.9 129.299 297.1 126.599 302.1 124.699C307.1 122.799 312.6 121.799 318.7 121.799C326.6 121.799 333.5 123.499 339.5 126.899C345.5 130.299 350.2 135.599 353.7 142.799L335 150.499C333.3 146.299 331 143.399 328.2 141.599C325.5 139.799 322.3 138.899 318.8 138.899C315.9 138.899 313.2 139.499 310.8 140.599C308.4 141.699 306.3 143.199 304.6 145.299C302.9 147.299 301.6 149.799 300.6 152.599C299.7 155.499 299.2 158.699 299.2 162.199C299.2 165.399 299.6 168.399 300.4 171.099C301.3 173.799 302.5 176.199 304.2 178.199C305.9 180.199 308 181.799 310.4 182.899C312.9 183.999 315.8 184.499 319 184.499C320.9 184.499 322.8 184.299 324.6 183.899C326.4 183.399 328 182.699 329.4 181.799C330.9 180.799 332.1 179.499 333 177.999C333.9 176.499 334.6 174.599 334.9 172.399H318.7V157.299ZM455 139.799V201.799H434V139.799H417V121.799H472V139.799H455ZM545 149.199C540.4 143.599 534.8 140.799 528.1 140.799C525.1 140.799 522.4 141.299 519.8 142.399C517.3 143.499 515.2 144.999 513.3 146.799C511.5 148.599 510 150.799 509 153.399C508 155.999 507.5 158.699 507.5 161.699C507.5 164.699 508 167.499 509 170.099C510.1 172.699 511.5 174.899 513.3 176.799C515.2 178.699 517.4 180.199 519.9 181.199C522.4 182.299 525.1 182.799 528 182.799C534.3 182.799 540 180.099 545 174.699V198.099L543 198.799C540 199.899 537.2 200.599 534.5 201.099C531.9 201.599 529.3 201.899 526.7 201.899C521.5 201.899 516.4 200.899 511.6 198.999C506.8 196.999 502.6 194.199 498.9 190.599C495.3 186.999 492.3 182.699 490.1 177.799C487.9 172.799 486.8 167.399 486.8 161.599C486.8 155.799 487.9 150.399 490 145.599C492.2 140.699 495.1 136.499 498.8 132.999C502.5 129.399 506.8 126.699 511.6 124.699C516.4 122.699 521.5 121.699 526.8 121.699C529.8 121.699 532.8 121.999 535.7 122.699C538.7 123.299 541.8 124.299 545 125.599V149.199ZM586.2 161.799C586.2 164.799 586.8 167.599 587.9 170.199C589 172.799 590.6 174.999 592.5 176.899C594.4 178.799 596.7 180.299 599.3 181.299C601.9 182.299 604.7 182.799 607.6 182.799C610.5 182.799 613.2 182.299 615.8 181.299C618.4 180.199 620.7 178.699 622.7 176.899C624.7 174.999 626.3 172.799 627.4 170.199C628.5 167.599 629.1 164.899 629.1 161.799C629.1 158.699 628.5 155.999 627.4 153.399C626.3 150.799 624.7 148.599 622.7 146.699C620.8 144.799 618.5 143.399 615.8 142.399C613.2 141.299 610.5 140.799 607.6 140.799C604.7 140.799 602 141.299 599.3 142.399C596.7 143.399 594.5 144.899 592.5 146.699C590.6 148.599 589 150.799 587.9 153.399C586.8 155.999 586.2 158.799 586.2 161.799ZM565.6 161.799C565.6 156.199 566.6 150.899 568.7 146.099C570.8 141.199 573.7 136.899 577.4 133.299C581.1 129.699 585.5 126.799 590.6 124.799C595.8 122.699 601.5 121.699 607.6 121.699C613.7 121.699 619.4 122.699 624.5 124.799C629.7 126.799 634.1 129.599 637.8 133.299C641.6 136.899 644.5 141.199 646.6 146.099C648.7 150.899 649.7 156.199 649.7 161.799C649.7 167.399 648.7 172.699 646.6 177.599C644.5 182.399 641.6 186.699 637.8 190.299C634.1 193.899 629.7 196.799 624.5 198.899C619.3 200.899 613.7 201.899 607.6 201.899C601.4 201.899 595.7 200.899 590.6 198.899C585.5 196.799 581.1 193.999 577.4 190.299C573.7 186.699 570.8 182.399 568.7 177.599C566.6 172.699 565.6 167.499 565.6 161.799ZM691 121.799V201.799H670V121.799H691ZM397 121.799V201.799H376V121.799H397ZM713 201.799V121.799H733L772 170.699V121.799H793V201.799H772.8L734 152.899V201.799H713Z" fill="#0E0333"/>
<path fill-rule="evenodd" clip-rule="evenodd" d="M197.933 126.436C204.889 136.186 208.665 148.026 208.566 159.965C208.566 171.705 204.79 183.445 197.933 192.996L212.441 204.039C221.682 191.304 226.75 175.784 226.75 160.064C226.85 143.449 221.384 127.133 211.348 114L203.028 121.5L197.933 126.436Z" fill="#15EBB7"/>
<path fill-rule="evenodd" clip-rule="evenodd" d="M225.359 213.821L176.569 176.711C180.047 172.134 182.034 166.563 182.332 160.792C182.531 155.022 181.041 149.351 177.96 144.476L201.312 123.384L225.757 100.501C227.347 99.0083 227.446 96.4216 225.856 94.8297L222.478 91.447C205.088 73.8371 181.637 63.5895 156.993 62.7936L157.093 49.3623C157.192 48.4669 157.093 47.5715 156.894 46.6761C156.596 45.7807 156.198 44.9847 155.602 44.2883C155.006 43.5919 154.31 43.0944 153.416 42.6964C152.621 42.2985 151.727 42.0995 150.832 42.0995C149.938 42.0995 149.044 42.2985 148.249 42.6964C147.454 43.0944 146.659 43.5919 146.063 44.2883C145.466 44.9847 144.969 45.7807 144.771 46.5766C144.473 47.472 144.373 48.3674 144.572 49.2628L144.473 63.0921C138.61 63.689 132.747 64.7834 127.083 66.4748L127.182 49.2628C127.282 48.3674 127.182 47.472 126.984 46.5766C126.686 45.6812 126.288 44.8852 125.692 44.1888C125.096 43.4924 124.4 42.9949 123.506 42.5969C122.711 42.199 121.816 42 120.922 42C120.028 42 119.133 42.199 118.339 42.5969C117.544 42.9949 116.749 43.4924 116.152 44.1888C115.556 44.8852 115.059 45.6812 114.861 46.4771C114.562 47.3725 114.463 48.2679 114.662 49.1634L114.364 71.1509C94.2912 80.105 77.7959 95.7251 67.7596 115.325C57.7233 134.925 54.5434 157.41 58.9157 178.999C63.2879 200.589 74.9142 220.089 91.8069 234.217C108.7 248.344 129.965 256.304 151.925 256.702L222.974 257C225.161 257 226.949 255.209 226.949 253.02V217.104C226.949 215.811 226.353 214.617 225.359 213.821ZM153.317 239.39C135.828 239.291 118.835 233.421 105.023 222.775C91.2107 212.03 81.2738 197.007 76.8022 180.093C72.3306 163.18 73.6224 145.172 80.2801 129.055C87.0372 112.937 98.8621 99.4063 114.066 90.6511L113.966 116.817C113.867 117.713 113.966 118.608 114.165 119.503C114.463 120.399 114.861 121.195 115.457 121.891C116.053 122.588 116.749 123.085 117.643 123.483C118.438 123.881 119.332 124.08 120.227 124.08C121.121 124.08 122.015 123.881 122.81 123.483C123.605 123.085 124.4 122.588 124.996 121.891C125.592 121.195 126.089 120.399 126.288 119.603C126.586 118.708 126.686 117.812 126.487 116.917L126.586 84.7811C135.331 81.5974 144.572 80.105 153.913 80.105C171.104 80.105 187.798 85.776 201.411 96.1231C202.405 96.919 202.504 98.3119 201.61 99.2073L164.446 133.333C161.067 131.94 157.391 131.144 153.714 131.144C149.64 131.144 145.566 131.94 141.79 133.631C138.014 135.323 134.734 137.81 132.051 140.894C129.369 143.978 127.381 147.659 126.189 151.54C124.996 155.519 124.698 159.598 125.294 163.677C125.891 167.757 127.282 171.637 129.468 175.119C131.654 178.601 134.635 181.486 138.014 183.775C141.492 185.963 145.367 187.456 149.441 188.053C153.515 188.65 157.689 188.351 161.564 187.157L209.063 223.273C209.56 223.671 209.858 224.267 209.858 224.864L209.758 237.599C209.758 238.694 208.864 239.589 207.771 239.589L153.317 239.39ZM164.943 159.797C164.943 161.986 164.247 164.175 163.055 166.065C161.763 167.956 160.074 169.348 157.987 170.244C155.9 171.139 153.615 171.338 151.528 170.841C149.441 170.343 147.354 169.348 145.764 167.757C144.175 166.165 143.081 164.175 142.684 161.986C142.287 159.797 142.485 157.509 143.38 155.519C144.274 153.43 145.665 151.739 147.553 150.445C149.441 149.251 151.627 148.555 153.813 148.555C156.794 148.555 159.676 149.749 161.763 151.938C163.75 153.927 164.943 156.713 164.943 159.797Z" fill="#0E0333"/>
</svg>
